X: 3759
T: Birlin In Brittany
R: reel
M: 4/4
K: Bminor
|:f3g fedc|Bcde fzfz|f3g fede|cecA cAce|
f3g fedc|Bcde fzfz|bfge fedc|BAFA B3e:|
|:fdcB gecA|a2a^g a2a=g|f3g fedc|Bcde dcBA|
FBdB GBdB|dcBA Bcde|f3g fedc|BAFA B3e:|

